/* XPM */
static char * ThreeCol_xpm[] = {
"40 40 2 1",
" 	c #31353F",
".	c #ABB2BF",
"                                        ",
"                                        ",
"                                        ",
"                                        ",
"                                        ",
"                                        ",
"                                        ",
"                                        ",
"      ......   ..........   ......      ",
"      ......   ..........   ......      ",
"      ......   ..........   ......      ",
"      ......   ..........   ......      ",
"      ......   ..........   ......      ",
"      ......   ..........   ......      ",
"      ......   ..........   ......      ",
"      ......   ..........   ......      ",
"      ......   ..........   ......      ",
"      ......   ..........   ......      ",
"      ......   ..........   ......      ",
"      ......   ..........   ......      ",
"      ......   ..........   ......      ",
"      ......   ..........   ......      ",
"      ......   ..........   ......      ",
"      ......   ..........   ......      ",
"      ......   ..........   ......      ",
"      ......   ..........   ......      ",
"      ......   ..........   ......      ",
"      ......   ..........   ......      ",
"      ......   ..........   ......      ",
"      ......   ..........   ......      ",
"      ......   ..........   ......      ",
"      ......   ..........   ......      ",
"                                        ",
"                                        ",
"                                        ",
"                                        ",
"                                        ",
"                                        ",
"                                        ",
"                                        "
};
